dist/assets/img/cart.svg

<svg width="35" height="32" viewBox="0 0 35 32" fill="none" xmlns="http://www.w3.org/2000/svg">
<path d="M1.7276 0.818082C1.62713 0.416238 1.21993 0.171926 0.818082 0.272397C0.416238 0.372868 0.171926 0.780075 0.272397 1.18192L1.7276 0.818082ZM8.31211 23.6858L8.76293 23.0864L8.31211 23.6858ZM4.10135 13.661L4.83069 13.4862L4.10135 13.661ZM8.03608 23.4681L8.51388 22.89L8.03608 23.4681ZM33.2506 14.414L33.9799 14.5888L33.2506 14.414ZM29.9833 23.0293L29.4579 22.4941L29.9833 23.0293ZM28.6801 24.057L29.0781 24.6927L28.6801 24.057ZM33.1323 8.29728L33.647 7.75182L33.1323 8.29728ZM33.6873 9.00104L34.3377 8.62759L33.6873 9.00104ZM20.9466 14.0591C20.5324 14.0591 20.1966 14.3948 20.1966 14.8091C20.1966 15.2233 20.5324 15.5591 20.9466 15.5591V14.0591ZM25.5496 18.6621C25.1354 18.6621 24.7996 18.9979 24.7996 19.4121C24.7996 19.8263 25.1354 20.1621 25.5496 20.1621V18.6621ZM2.61525 8.21038H27.7666V6.71038H2.61525V8.21038ZM19.5406 24.4764H18.7662V25.9764H19.5406V24.4764ZM4.83069 13.4862L3.3446 7.28557L1.88591 7.63518L3.372 13.8358L4.83069 13.4862ZM3.34285 7.27846L1.7276 0.818082L0.272397 1.18192L1.88765 7.64229L3.34285 7.27846ZM18.7662 24.4764C15.9466 24.4764 13.8962 24.4752 12.2924 24.2888C10.7077 24.1047 9.64115 23.7469 8.76293 23.0864L7.86129 24.2852C9.03142 25.1653 10.39 25.5778 12.1193 25.7788C13.8295 25.9776 15.982 25.9764 18.7662 25.9764V24.4764ZM3.372 13.8358C4.02091 16.5433 4.52144 18.6368 5.11335 20.2536C5.71182 21.8884 6.42969 23.1134 7.55827 24.0462L8.51388 22.89C7.66685 22.1899 7.07039 21.2361 6.52192 19.7379C5.96689 18.2218 5.48786 16.2282 4.83069 13.4862L3.372 13.8358ZM8.76293 23.0864C8.67842 23.0228 8.59539 22.9573 8.51388 22.89L7.55827 24.0462C7.65744 24.1281 7.75847 24.2078 7.86129 24.2852L8.76293 23.0864ZM19.5406 25.9764C21.9493 25.9764 23.8115 25.9773 25.3034 25.8264C26.8103 25.674 28.0098 25.3616 29.0781 24.6927L28.2821 23.4214C27.4827 23.9218 26.5363 24.1941 25.1524 24.334C23.7534 24.4755 21.9798 24.4764 19.5406 24.4764V25.9764ZM29.4579 22.4941C29.1006 22.8448 28.7064 23.1557 28.2821 23.4214L29.0781 24.6927C29.5943 24.3695 30.074 23.9912 30.5087 23.5645L29.4579 22.4941ZM27.7666 8.21038C29.279 8.21038 30.3445 8.2117 31.1457 8.30947C31.9346 8.40573 32.3428 8.58352 32.6175 8.84274L33.647 7.75182C33.0349 7.17414 32.2532 6.93348 31.3274 6.82051C30.414 6.70905 29.2401 6.71038 27.7666 6.71038V8.21038ZM33.9799 14.5888C34.3233 13.1559 34.5982 12.0146 34.7027 11.1004C34.8087 10.1737 34.7568 9.35751 34.3377 8.62759L33.0369 9.3745C33.2249 9.70203 33.3027 10.1404 33.2124 10.93C33.1208 11.732 32.8737 12.7684 32.5212 14.2392L33.9799 14.5888ZM32.6175 8.84274C32.7826 8.99851 32.9239 9.17767 33.0369 9.3745L34.3377 8.62759C34.1516 8.30344 33.9189 8.00837 33.647 7.75182L32.6175 8.84274ZM31.687 18.6621H25.5496V20.1621H31.687V18.6621ZM33.1559 14.0591L20.9466 14.0591V15.5591L33.1559 15.5591V14.0591ZM32.5212 14.2392C32.4892 14.3728 32.4577 14.5044 32.4265 14.6341L33.8852 14.984C33.9163 14.8541 33.9479 14.7224 33.9799 14.5888L32.5212 14.2392ZM32.4265 14.6341C31.9708 16.5341 31.612 18.0033 31.2348 19.1838L32.6637 19.6404C33.0611 18.3967 33.4328 16.8698 33.8852 14.984L32.4265 14.6341ZM31.2348 19.1838C30.7268 20.7738 30.2098 21.7559 29.4579 22.4941L30.5087 23.5645C31.5134 22.5782 32.1244 21.3281 32.6637 19.6404L31.2348 19.1838ZM31.687 20.1621H31.9492V18.6621H31.687V20.1621Z" fill="#383838"/>
<path d="M15.536 30.0717C15.536 30.9637 14.8129 31.6868 13.9209 31.6868C13.0289 31.6868 12.3058 30.9637 12.3058 30.0717C12.3058 29.1797 13.0289 28.4566 13.9209 28.4566C14.8129 28.4566 15.536 29.1797 15.536 30.0717Z" fill="#383838"/>
<path d="M25.2266 30.0717C25.2266 30.9637 24.5035 31.6868 23.6115 31.6868C22.7195 31.6868 21.9964 30.9637 21.9964 30.0717C21.9964 29.1797 22.7195 28.4566 23.6115 28.4566C24.5035 28.4566 25.2266 29.1797 25.2266 30.0717Z" fill="#383838"/>
</svg>

<svg width="35" height="32" fill="none" xmlns="http://www.w3.org/2000/svg"><path d="M1.728.818a.75.75 0 1 0-1.456.364L1.728.818Zm6.584 22.868.45-.6-.45.6ZM4.102 13.66l.729-.175-.73.175Zm3.934 9.807.478-.578-.478.578Zm25.215-9.054.729.175-.73-.175Zm-3.268 8.615-.525-.535.525.535Zm-1.303 1.028.398.636-.398-.636Zm4.452-15.76.515-.545-.515.545Zm.555.704.65-.373-.65.373Zm-12.74 5.058a.75.75 0 1 0 0 1.5v-1.5Zm4.603 4.603a.75.75 0 0 0 0 1.5v-1.5ZM2.615 8.21h25.152v-1.5H2.615v1.5Zm16.926 16.266h-.775v1.5h.775v-1.5ZM4.83 13.486l-1.486-6.2-1.46.35 1.487 6.2 1.459-.35ZM3.343 7.278 1.728.818l-1.456.364 1.616 6.46 1.455-.364Zm15.423 17.198c-2.82 0-4.87 0-6.474-.187-1.584-.184-2.65-.542-3.53-1.203l-.9 1.2c1.17.88 2.528 1.292 4.257 1.493 1.71.199 3.863.197 6.647.197v-1.5ZM3.372 13.836c.649 2.707 1.15 4.8 1.741 6.418.599 1.634 1.317 2.86 2.445 3.792l.956-1.156c-.847-.7-1.444-1.654-1.992-3.152-.555-1.516-1.034-3.51-1.691-6.252l-1.459.35Zm5.39 9.25a7.041 7.041 0 0 1-.248-.196l-.956 1.156c.1.082.2.162.303.24l.902-1.2Zm10.779 2.89c2.408 0 4.27.001 5.762-.15 1.507-.152 2.707-.464 3.775-1.133l-.796-1.272c-.8.5-1.746.773-3.13.913-1.399.142-3.172.142-5.611.142v1.5Zm9.917-3.482c-.357.35-.752.662-1.176.927l.796 1.272a8.424 8.424 0 0 0 1.43-1.129l-1.05-1.07ZM27.767 8.21c1.512 0 2.578.002 3.379.1.789.096 1.197.274 1.471.533l1.03-1.091c-.612-.578-1.394-.819-2.32-.931-.913-.112-2.087-.11-3.56-.11v1.5Zm6.213 6.379c.343-1.433.618-2.574.723-3.489.106-.926.054-1.742-.365-2.472l-1.301.746c.188.328.266.766.175 1.556-.091.802-.338 1.838-.69 3.31l1.458.349Zm-1.362-5.746c.165.156.306.335.419.531l1.3-.746a3.817 3.817 0 0 0-.69-.876l-1.03 1.09Zm-.931 9.82H25.55v1.5h6.137v-1.5Zm1.469-4.604h-12.21v1.5h12.21v-1.5Zm-.635.18-.095.395 1.46.35.094-.395-1.459-.35Zm-.095.395c-.455 1.9-.814 3.37-1.191 4.55l1.429.456c.397-1.243.769-2.77 1.221-4.656l-1.459-.35Zm-1.191 4.55c-.508 1.59-1.025 2.572-1.777 3.31l1.05 1.07c1.005-.986 1.616-2.236 2.156-3.924l-1.43-.456Zm.452.978h.262v-1.5h-.262v1.5Zm-16.151 9.91a1.615 1.615 0 1 1-3.23 0 1.615 1.615 0 0 1 3.23 0Zm9.691 0a1.615 1.615 0 1 1-3.23 0 1.615 1.615 0 0 1 3.23 0Z" fill="#383838"/></svg>
